X:1
T:Otto Langey 059
T:Otto Langey 059
T:L. Dorus
T:Digital Conversion: Christophe Budiman
C:L. Dorus
%%score 1 2
L:1/8
Q:1/4=75
M:4/4
K:G
V:1 treble nm="Pupil" snm="Pup"
V:2 treble nm="Master" snm="Mas"
V:1
 e4 B2 e2 | g4 (ba)(gf) | e2 e2 f2 f2 | (ag)(fe) e2 z2 | z2 .g2 (fe)(d^c) | z2 .f2 (ed)(^cB) | %6
 ^c2 e2 d2 c2 | (df).b.a .g.f.e.d | (^cd)(ec) (c2 dc) | B2 d2 B2 z2 :: B4 ^d2 f2 | %11
 (ag).f.e .^d.=c.B.A | (G2 b2) a2 g2 | (g4 f2) z2 | B4 ^d2 f2 | (ag).f.e .^d.=c.B.A | %16
 (G2 b2) a2 g2 | (g4 f2) z2 | e4 B2 e2 | g4 (ba)(gf) | e2 e2 f2 f2 | (ag)(fe) e2 z2 | %22
 (cd).e.f .^g.a.b.c' | (B^c).^d.e .f.=g.a.b | .a2 .f2 (g3 f) | e2 g2 e2 z2 :| %26
V:2
 E2 G2 B2 G2 | E2 G2 F2 A2 | G2 EG B2 B2 | E2 z2 EFGF | E2 E2 E2 E2 | D2 D2 D2 D2 | E2 G2 F2 ^A2 | %7
 B2 d^c B=AGF | E2 E2 F2 F2 | D2 F2 D2 z2 :: z8 | ^D2 F2 B2 d2 | e2 g2 f2 e2 | (e4 ^d2) z2 | z8 | %15
 ^D2 F2 B2 d2 | e2 g2 f2 e2 | (e4 ^d2) z2 | E2 G2 B2 G2 | E2 G2 F2 A2 | G2 (EG) B2 B2 | %21
 E2 z2 (EF).G.E | A8 | =G8 | c2 A2 B2 B2 | G2 B2 G2 z2 :| %26

